src/assets/icons/external-link.svg

<svg viewBox="0 0 32 32" xmlns="http://www.w3.org/2000/svg">
  <path
    fill-rule="evenodd"
    clip-rule="evenodd"
    d="M26.38 20V28H4.38V6H12.38L16.38 2L0.380005 2V32.0026H30.38V16L26.38 20ZM32.38 0V12.3087L27.9674 7.8948L14.8518 21.0123L11.3704 17.5308L24.4865 4.41144L20.0765 0H32.38Z" />
</svg>

<svg viewBox="0 0 32 32" xmlns="http://www.w3.org/2000/svg">
  <path fill-rule="evenodd" clip-rule="evenodd" d="M26.38 20v8h-22V6h8l4-4h-16v30.003h30V16l-4 4Zm6-20v12.309l-4.413-4.414-13.115 13.117-3.482-3.481L24.487 4.41 20.076 0H32.38Z"/>
</svg>
